svgs/sharp-thin/copy.svg

<svg xmlns="http://www.w3.org/2000/svg" viewBox="0 0 448 512"><!--! Font Awesome Pro 6.6.0 by @fontawesome - https://fontawesome.com License - https://fontawesome.com/license (Commercial License) Copyright 2024 Fonticons, Inc. --><path d="M432 368l-256 0 0-352 169.4 0L432 102.6 432 368zM448 96L352 0 176 0 160 0l0 16 0 352 0 16 16 0 256 0 16 0 0-16 0-272zM16 128L0 128l0 16L0 496l0 16 16 0 256 0 16 0 0-16 0-80-16 0 0 80L16 496l0-352 112 0 0-16L16 128z"/></svg>

<svg xmlns="http://www.w3.org/2000/svg" viewBox="0 0 448 512"><!--! Font Awesome Pro 6.5.2 by @fontawesome - https://fontawesome.com License - https://fontawesome.com/license (Commercial License) Copyright 2024 Fonticons, Inc. --><path d="M432 368H176V16H345.4L432 102.6V368zM448 96L352 0H176 160V16 368v16h16H432h16V368 96zM16 128H0v16V496v16H16 272h16V496 416H272v80H16V144H128V128H16z"/></svg>
